ufans-frontend-package/public/assets/images/new-settings/video-call-history.svg

<?xml version="1.0"?>
<svg xmlns="http://www.w3.org/2000/svg" xmlns:xlink="http://www.w3.org/1999/xlink" xmlns:svgjs="http://svgjs.com/svgjs" version="1.1" width="512" height="512" x="0" y="0" viewBox="0 0 24 24" style="enable-background:new 0 0 512 512" xml:space="preserve" class=""><g><path xmlns="http://www.w3.org/2000/svg" d="m7 10h-2a1 1 0 0 1 0-2h2a1 1 0 0 1 0 2z" fill="#6661e7" data-original="#000000" class=""/><path xmlns="http://www.w3.org/2000/svg" d="m22.07 5.869a1.763 1.763 0 0 0 -1.807.087l-3.263 2.175v-1.112a2.522 2.522 0 0 0 -2.519-2.519h-10.962a2.522 2.522 0 0 0 -2.519 2.519v9.962a2.522 2.522 0 0 0 2.519 2.519h10.962a2.522 2.522 0 0 0 2.519-2.519v-1.112l3.263 2.175a1.761 1.761 0 0 0 2.737-1.465v-9.158a1.762 1.762 0 0 0 -.93-1.552zm-7.07 11.112a.519.519 0 0 1 -.519.519h-10.962a.519.519 0 0 1 -.519-.519v-9.962a.519.519 0 0 1 .519-.519h10.962a.519.519 0 0 1 .519.519zm6-.849-4-2.667v-2.93l4-2.667z" fill="#6661e7" data-original="#000000" class=""/></g></svg>

<svg xmlns="http://www.w3.org/2000/svg" width="22" height="15" viewBox="0 0 22 15">
  <g id="video-call-history" transform="translate(-1 -4.5)">
    <path id="Path_1" data-name="Path 1" d="M7,10H5A1,1,0,0,1,5,8H7a1,1,0,0,1,0,2Z" fill="#e44499"/>
    <path id="Path_2" data-name="Path 2" d="M22.07,5.869a1.763,1.763,0,0,0-1.807.087L17,8.131V7.019A2.522,2.522,0,0,0,14.481,4.5H3.519A2.522,2.522,0,0,0,1,7.019v9.962A2.522,2.522,0,0,0,3.519,19.5H14.481A2.522,2.522,0,0,0,17,16.981V15.869l3.263,2.175A1.761,1.761,0,0,0,23,16.579V7.421A1.762,1.762,0,0,0,22.07,5.869ZM15,16.981a.519.519,0,0,1-.519.519H3.519A.519.519,0,0,1,3,16.981V7.019A.519.519,0,0,1,3.519,6.5H14.481A.519.519,0,0,1,15,7.019Zm6-.849-4-2.667v-2.93l4-2.667Z" fill="#e44499"/>
  </g>
</svg>
